svgs/thin/stroopwafel.svg

<svg xmlns="http://www.w3.org/2000/svg" viewBox="0 0 512 512"><!--! Font Awesome Pro 6.0.0-alpha3 by @fontawesome - https://fontawesome.com License - https://fontawesome.com/license (Commercial License) --><path d="M256 16c-132.5 0-240 107.5-240 240s107.5 240 240 240s240-107.5 240-240S388.5 16 256 16zM256 480c-123.5 0-224-100.5-224-224s100.5-224 224-224s224 100.5 224 224S379.5 480 256 480zM395.3 256l26.34-26.34c3.125-3.125 3.125-8.188 0-11.31s-8.188-3.125-11.31 0L384 244.7L331.3 192l58.34-58.34c3.125-3.125 3.125-8.188 0-11.31s-8.188-3.125-11.31 0L320 180.7L267.3 128l26.34-26.34c3.125-3.125 3.125-8.188 0-11.31s-8.188-3.125-11.31 0L256 116.7L229.7 90.34c-3.125-3.125-8.188-3.125-11.31 0s-3.125 8.188 0 11.31L244.7 128L192 180.7L133.7 122.3c-3.125-3.125-8.188-3.125-11.31 0s-3.125 8.188 0 11.31L180.7 192L128 244.7L101.7 218.3c-3.125-3.125-8.188-3.125-11.31 0s-3.125 8.188 0 11.31L116.7 256L90.34 282.3c-3.125 3.125-3.125 8.188 0 11.31C91.91 295.2 93.95 296 96 296s4.094-.7813 5.656-2.344L128 267.3L180.7 320l-58.34 58.34c-3.125 3.125-3.125 8.188 0 11.31C123.9 391.2 125.1 392 128 392s4.094-.7813 5.656-2.344L192 331.3L244.7 384l-26.34 26.34c-3.125 3.125-3.125 8.188 0 11.31C219.9 423.2 221.1 424 224 424s4.094-.7813 5.656-2.344L256 395.3l26.34 26.34C283.9 423.2 285.1 424 288 424s4.094-.7813 5.656-2.344c3.125-3.125 3.125-8.188 0-11.31L267.3 384L320 331.3l58.34 58.34C379.9 391.2 381.1 392 384 392s4.094-.7813 5.656-2.344c3.125-3.125 3.125-8.188 0-11.31L331.3 320L384 267.3l26.34 26.34C411.9 295.2 413.1 296 416 296s4.094-.7813 5.656-2.344c3.125-3.125 3.125-8.188 0-11.31L395.3 256zM256 139.3L308.7 192L256 244.7L203.3 192L256 139.3zM139.3 256L192 203.3L244.7 256L192 308.7L139.3 256zM256 372.7L203.3 320L256 267.3L308.7 320L256 372.7zM320 308.7L267.3 256L320 203.3L372.7 256L320 308.7z"/></svg>

<svg xmlns="http://www.w3.org/2000/svg" viewBox="0 0 512 512"><!-- Font Awesome Pro 6.0.0-alpha2 by @fontawesome - https://fontawesome.com License - https://fontawesome.com/license (Commercial License) --><path d="M256 16C123.451 16 16 123.451 16 256S123.451 496 256 496S496 388.549 496 256S388.549 16 256 16ZM256 480C132.486 480 32 379.514 32 256S132.486 32 256 32S480 132.486 480 256S379.514 480 256 480ZM395.312 256L421.656 229.656C424.781 226.531 424.781 221.469 421.656 218.344S413.469 215.219 410.344 218.344L384 244.688L331.312 192L389.656 133.656C392.781 130.531 392.781 125.469 389.656 122.344S381.469 119.219 378.344 122.344L320 180.688L267.312 128L293.656 101.656C296.781 98.531 296.781 93.469 293.656 90.344S285.469 87.219 282.344 90.344L256 116.688L229.656 90.344C226.531 87.219 221.469 87.219 218.344 90.344S215.219 98.531 218.344 101.656L244.688 128L192 180.688L133.656 122.344C130.531 119.219 125.469 119.219 122.344 122.344S119.219 130.531 122.344 133.656L180.688 192L128 244.688L101.656 218.344C98.531 215.219 93.469 215.219 90.344 218.344S87.219 226.531 90.344 229.656L116.688 256L90.344 282.344C87.219 285.469 87.219 290.531 90.344 293.656C91.906 295.219 93.953 296 96 296S100.094 295.219 101.656 293.656L128 267.312L180.688 320L122.344 378.344C119.219 381.469 119.219 386.531 122.344 389.656C123.906 391.219 125.953 392 128 392S132.094 391.219 133.656 389.656L192 331.312L244.688 384L218.344 410.344C215.219 413.469 215.219 418.531 218.344 421.656C219.906 423.219 221.953 424 224 424S228.094 423.219 229.656 421.656L256 395.312L282.344 421.656C283.906 423.219 285.953 424 288 424S292.094 423.219 293.656 421.656C296.781 418.531 296.781 413.469 293.656 410.344L267.312 384L320 331.312L378.344 389.656C379.906 391.219 381.953 392 384 392S388.094 391.219 389.656 389.656C392.781 386.531 392.781 381.469 389.656 378.344L331.312 320L384 267.312L410.344 293.656C411.906 295.219 413.953 296 416 296S420.094 295.219 421.656 293.656C424.781 290.531 424.781 285.469 421.656 282.344L395.312 256ZM256 139.312L308.688 192L256 244.688L203.312 192L256 139.312ZM139.312 256L192 203.312L244.688 256L192 308.688L139.312 256ZM256 372.688L203.312 320L256 267.312L308.688 320L256 372.688ZM320 308.688L267.312 256L320 203.312L372.688 256L320 308.688Z"/></svg>
